X: 25377
T: Marcel Martin
R: reel
M: 4/4
K: Amajor
cBAG A2EF-|FEDF E2 AB|cBAG A2 FE-|EGBc d4|
cBAG A2EF-|FEDF E2 AB|cBAG A2 FE-|EGBG A4:|
cBAG A2a2-|aAg2 f3g|e3g f2fA|cAce B4|
cBAG A2a2-|aAg2 f3g|e4 c3A|BABc A4:|

